X: 11884
T: Emma
R: waltz
M: 3/4
K: Aminor
e4 e2|c2A2 Ac|e4 e2|c2A2 Ac|B4 Bc|d2c2 B2|A6a4 a2|a2g2f2|
e4 e2|e2d2 c2|B3B c2|d2c2 B2|A6|1 E4:|2 A4||

